src/24/actions/kstars_fitsviewer.svg

<svg xmlns="http://www.w3.org/2000/svg" viewBox="0 0 24 24">
  <defs id="defs3051">
    <style type="text/css" id="current-color-scheme">
      .ColorScheme-Text {
        color:#5d656b;
      }
      </style>
  </defs>
 <path style="fill:currentColor;fill-opacity:1;stroke:none" 
     d="M 10 5.9980469 C 6.1340067 5.9980469 3 8.6759684 3 11.980469 C 3 15.285069 5.1340067 17.746094 9 17.746094 C 5.7783206 17.746094 4.16599 14.734369 4.1660156 11.980469 C 4.16599 9.2265684 6.7783209 6.9941406 10 6.9941406 C 11.456084 6.9941406 12.7709 7.4666031 13.792969 8.2207031 A 5 3.9164941 0 0 0 12 7.9550781 A 5 3.9164941 0 0 0 7 11.873047 L 7 11.882812 A 5 3.9164941 0 0 0 7.0195312 12.199219 C 7.2124814 15.429484 10.258511 18 14 18 C 17.865992 18 21 15.258153 21 11.876953 C 21 8.4956533 18.865994 6 15 6 C 18.221678 6 19.83401 9.0573 19.833984 11.875 C 19.83401 14.6927 17.221676 16.976563 14 16.976562 C 12.32749 16.976562 10.82341 16.357394 9.7597656 15.371094 A 5 3.9164941 0 0 0 12 15.789062 A 5 3.9164941 0 0 0 16.992188 11.980469 L 17 11.980469 C 17 11.961469 16.996294 11.942828 16.996094 11.923828 A 5 3.9164941 0 0 0 17 11.873047 A 5 3.9164941 0 0 0 16.96875 11.472656 C 16.666159 8.4066566 13.665132 5.9980469 10 5.9980469 z "
     class="ColorScheme-Text"
     />
</svg>

<svg xmlns="http://www.w3.org/2000/svg" viewBox="0 0 24 24"><path d="M10 5.998c-3.866 0-7 2.678-7 5.982 0 3.305 2.134 5.766 6 5.766-3.222 0-4.834-3.012-4.834-5.766 0-2.753 2.612-4.986 5.834-4.986 1.456 0 2.77.473 3.793 1.227A5 3.916 0 0 0 12 7.955a5 3.916 0 0 0-5 3.918v.01a5 3.916 0 0 0 .02.316C7.212 15.43 10.259 18 14 18c3.866 0 7-2.742 7-6.123C21 8.496 18.866 6 15 6c3.222 0 4.834 3.057 4.834 5.875S17.222 16.977 14 16.977c-1.673 0-3.177-.62-4.24-1.606a5 3.916 0 0 0 2.24.418 5 3.916 0 0 0 4.992-3.809H17c0-.019-.004-.037-.004-.056a5 3.916 0 0 0 .004-.051 5 3.916 0 0 0-.031-.4C16.666 8.407 13.665 5.998 10 5.998z" fill="currentColor" color="#5d656b"/></svg>
